CSETWebApi/CSETWeb_Api/CSETWeb_ApiCore/Diagram/src/main/webapp/img/lib/ibm/analytics/analytics.svg

<svg xmlns="http://www.w3.org/2000/svg" viewBox="0 0 59.8 59.8"><circle cx="29.9" cy="29.9" r="29.9" fill="#734198"/><path d="M50.4 26.4c-1.4 0-2.5 1.1-2.5 2.5A2.61 2.61 0 0 0 49 31l-4.8 10.6c-.2-.1-.5-.1-.7-.1-.5 0-1 .2-1.5.5l-1-5.2c1.3-.5 1.9-1.9 1.4-3.2-.4-1-1.3-1.6-2.4-1.6-.8 0-1.5-.1-2 .9l-2.4-.7c-.1-1.3-1.1-2.3-2.4-2.3-.2 0-.1.1-.2.2L31.3 24v-1.1c0-1.4-1.2-2.5-2.6-2.6-1.4 0-2.6 1-2.6 2.4L16 31.3c-.9-1-2.5-1.1-3.5-.2s-1.1 2.5-.2 3.5 2.5 1.1 3.5.2c.5-.5.8-1.1.8-1.8 0-.2 0-.5-.1-.7l9.9-8.4a2.33 2.33 0 0 0 2.1 1.3c.5 0 1.1-.2 1.5-.5v.3l1.8 5.9c-.6 0-1 .9-1 1.7 0 1.3 1.1 2.4 2.4 2.4h.1c1.1 0 2.1-.7 2.6-1.7l2.4.5v.6c-.1 1.2.8 2.4 2 2.5h.5-.8l1.2 6.2c-.5 1.3.2 2.7 1.4 3.2s2.7-.2 3.2-1.4c.4-1 .1-2.1-.7-2.8L50 31.3h.3c1.4 0 2.5-1.1 2.5-2.5.1-1.4-1-2.5-2.4-2.4zm-36.3 8c-.8 0-1.4-.6-1.4-1.4s.6-1.4 1.4-1.4 1.4.6 1.4 1.4-.7 1.4-1.4 1.4zm2.2-2.6zm9.8-8.4zm2.4.7c-.8 0-1.4-.6-1.4-1.4s.6-1.4 1.4-1.4 1.4.6 1.4 1.4-.6 1.4-1.4 1.4zm1.9.2zm1.9 5.8zm1 3.6c-.8 0-1.4-.6-1.4-1.4s.6-1.4 1.4-1.4 1.4.6 1.4 1.4c-.1.8-.7 1.4-1.4 1.4zm2.4-.9v-.5a.45.45 0 0 1 0 .5zm2.3.4zm.8 1.2c0-.8.6-1.4 1.4-1.4s1.4.6 1.4 1.4-.6 1.4-1.4 1.4-1.5-.6-1.4-1.4c-.1 0-.1 0 0 0zm2.8 8zm2 3c-.8 0-1.4-.6-1.4-1.4s.6-1.4 1.4-1.4 1.4.6 1.4 1.4c0 .7-.7 1.4-1.4 1.4zm1.2-3.6zm4.7-10.6zm.9-.9c-.8 0-1.4-.6-1.4-1.4s.6-1.4 1.4-1.4 1.4.6 1.4 1.4-.6 1.4-1.4 1.4z" fill="#fff"/><path d="M23.1 18l2.7 2.3m.1-4.2l1.3 3.3" fill="none" stroke="#fff" stroke-miterlimit="10"/><path d="M29.3,15.6L29,19.2" fill="#fff" stroke="#fff" stroke-miterlimit="10"/><path d="M32.5 16.8l-2 3" fill="none" stroke="#fff" stroke-miterlimit="10"/></svg>

<?xml version="1.0" encoding="utf-8"?>
<!-- Generator: Adobe Illustrator 21.1.0, SVG Export Plug-In . SVG Version: 6.00 Build 0)  -->
<svg version="1.1" id="Layer_1" xmlns="http://www.w3.org/2000/svg" xmlns:xlink="http://www.w3.org/1999/xlink" x="0px" y="0px"
	 viewBox="0 0 59.8 59.8" style="enable-background:new 0 0 59.8 59.8;" xml:space="preserve">
<style type="text/css">
	.st0{fill:#734198;}
	.st1{fill:#FFFFFF;}
	.st2{fill:none;stroke:#FFFFFF;stroke-miterlimit:10;}
	.st3{fill:#FFFFFF;stroke:#FFFFFF;stroke-miterlimit:10;}
</style>
<title>INDIVIDUAL ICONS</title>
<circle class="st0" cx="29.9" cy="29.9" r="29.9"/>
<path class="st1" d="M50.4,26.4c-1.4,0-2.5,1.1-2.5,2.5c0,0.8,0.4,1.6,1.1,2.1l0,0l-4.8,10.6c-0.2-0.1-0.5-0.1-0.7-0.1
	c-0.5,0-1,0.2-1.5,0.5l0,0l-1-5.2c1.3-0.5,1.9-1.9,1.4-3.2c-0.4-1-1.3-1.6-2.4-1.6c-0.8,0-1.5-0.1-2,0.9l0,0l-2.4-0.7
	c-0.1-1.3-1.1-2.3-2.4-2.3c-0.2,0-0.1,0.1-0.2,0.2L31.3,24l0,0c0-0.5,0-0.8,0-1.1c0-1.4-1.2-2.5-2.6-2.6c-1.4,0-2.6,1-2.6,2.4
	c0,0,0,0,0,0l0,0l-10.1,8.6c-0.9-1-2.5-1.1-3.5-0.2c-1,0.9-1.1,2.5-0.2,3.5c0.9,1,2.5,1.1,3.5,0.2c0.5-0.5,0.8-1.1,0.8-1.8
	c0-0.2,0-0.5-0.1-0.7l9.9-8.4l0,0c0.4,0.8,1.2,1.3,2.1,1.3c0.5,0,1.1-0.2,1.5-0.5V25l1.8,5.9l0,0c-0.6,0-1,0.9-1,1.7
	c0,1.3,1.1,2.4,2.4,2.4c0,0,0,0,0.1,0c1.1,0,2.1-0.7,2.6-1.7l2.4,0.5l0,0v0.6c-0.1,1.2,0.8,2.4,2,2.5c0.1,0,0.1,0,0.2,0
	c0.1,0,0.2,0,0.3,0c-0.2,0-0.4,0-0.6,0H40l1.2,6.2c-0.5,1.3,0.2,2.7,1.4,3.2s2.7-0.2,3.2-1.4c0.4-1,0.1-2.1-0.7-2.8l0,0l4.9-10.8
	l0,0c0.1,0,0.2,0,0.3,0c1.4,0,2.5-1.1,2.5-2.5C52.9,27.4,51.8,26.3,50.4,26.4L50.4,26.4z M14.1,34.4c-0.8,0-1.4-0.6-1.4-1.4
	c0-0.8,0.6-1.4,1.4-1.4s1.4,0.6,1.4,1.4c0,0,0,0,0,0C15.5,33.8,14.8,34.4,14.1,34.4L14.1,34.4z M16.3,31.8L16.3,31.8z M26.1,23.4
	L26.1,23.4L26.1,23.4z M28.5,24.1c-0.8,0-1.4-0.6-1.4-1.4c0-0.8,0.6-1.4,1.4-1.4c0.8,0,1.4,0.6,1.4,1.4c0,0,0,0,0,0
	C29.9,23.5,29.3,24.1,28.5,24.1C28.5,24.1,28.5,24.1,28.5,24.1L28.5,24.1z M30.4,24.3L30.4,24.3L30.4,24.3z M32.3,30.1L32.3,30.1z
	 M33.3,33.7c-0.8,0-1.4-0.6-1.4-1.4c0-0.8,0.6-1.4,1.4-1.4c0.8,0,1.4,0.6,1.4,1.4c0,0,0,0,0,0C34.6,33.1,34,33.7,33.3,33.7
	L33.3,33.7z M35.7,32.8c0-0.2,0-0.3,0-0.5C35.8,32.5,35.8,32.6,35.7,32.8z M38,33.2L38,33.2z M38.8,34.4c0-0.8,0.6-1.4,1.4-1.4
	c0.8,0,1.4,0.6,1.4,1.4c0,0.8-0.6,1.4-1.4,1.4C39.4,35.8,38.7,35.2,38.8,34.4C38.7,34.4,38.7,34.4,38.8,34.4L38.8,34.4z M41.6,42.4
	L41.6,42.4L41.6,42.4z M43.6,45.4c-0.8,0-1.4-0.6-1.4-1.4c0-0.8,0.6-1.4,1.4-1.4c0.8,0,1.4,0.6,1.4,1.4C45,44.7,44.3,45.4,43.6,45.4
	L43.6,45.4z M44.8,41.8L44.8,41.8z M49.5,31.2L49.5,31.2z M50.4,30.3c-0.8,0-1.4-0.6-1.4-1.4c0-0.8,0.6-1.4,1.4-1.4
	c0.8,0,1.4,0.6,1.4,1.4c0,0,0,0,0,0C51.8,29.7,51.2,30.3,50.4,30.3L50.4,30.3z"/>
<line class="st2" x1="23.1" y1="18" x2="25.8" y2="20.3"/>
<line class="st2" x1="25.9" y1="16.1" x2="27.2" y2="19.4"/>
<path class="st3" d="M29.3,15.6L29,19.2"/>
<line class="st2" x1="32.5" y1="16.8" x2="30.5" y2="19.8"/>
</svg>
